flaticon/interaction/calendar-30.svg

<svg xmlns="http://www.w3.org/2000/svg" width="32" height="32" viewBox="0 0 24 24">
    <path d="M 23.851562 19.070312 C 22.402344 16.855469 20.46875 15.609375 18.382812 15.527344 C 18.273438 15.515625 18.160156 15.503906 18.046875 15.503906 C 17.847656 15.503906 17.648438 15.527344 17.460938 15.566406 C 15.566406 15.8125 13.816406 17.03125 12.484375 19.070312 L 12.292969 19.363281 L 12.4375 19.589844 C 13.9375 21.878906 15.957031 23.140625 18.125 23.140625 C 20.289062 23.140625 22.308594 21.878906 23.808594 19.589844 L 24 19.296875 Z M 20.074219 18.355469 C 20.074219 19.472656 19.164062 20.378906 18.046875 20.378906 C 16.933594 20.378906 16.023438 19.472656 16.023438 18.355469 C 16.023438 17.386719 16.707031 16.578125 17.613281 16.378906 C 17.796875 16.359375 17.980469 16.34375 18.167969 16.34375 C 18.175781 16.34375 18.183594 16.34375 18.191406 16.34375 C 19.242188 16.421875 20.074219 17.289062 20.074219 18.355469 Z M 18.125 22.316406 C 16.3125 22.316406 14.601562 21.269531 13.28125 19.363281 C 13.921875 18.417969 14.660156 17.683594 15.457031 17.175781 C 15.292969 17.535156 15.199219 17.933594 15.199219 18.355469 C 15.199219 19.925781 16.476562 21.203125 18.046875 21.203125 C 19.621094 21.203125 20.898438 19.925781 20.898438 18.355469 C 20.898438 17.851562 20.765625 17.382812 20.539062 16.972656 C 21.445312 17.46875 22.289062 18.253906 23.011719 19.296875 C 21.683594 21.246094 19.953125 22.316406 18.125 22.316406 Z M 18.125 22.316406"/>
    <path d="M 14.847656 13.445312 L 18.558594 13.445312 L 18.558594 8.90625 L 2.886719 8.90625 L 2.886719 20.867188 L 11.136719 20.867188 L 11.136719 13.445312 Z M 14.847656 9.730469 L 17.734375 9.730469 L 17.734375 12.617188 L 14.847656 12.617188 Z M 7.421875 9.730469 L 10.308594 9.730469 L 10.308594 12.617188 L 7.421875 12.617188 Z M 3.710938 9.730469 L 6.597656 9.730469 L 6.597656 12.617188 L 3.710938 12.617188 Z M 3.710938 13.445312 L 6.597656 13.445312 L 6.597656 16.332031 L 3.710938 16.332031 Z M 6.597656 20.042969 L 3.710938 20.042969 L 3.710938 17.15625 L 6.597656 17.15625 Z M 10.308594 20.042969 L 7.421875 20.042969 L 7.421875 17.15625 L 10.308594 17.15625 Z M 10.308594 16.332031 L 7.421875 16.332031 L 7.421875 13.445312 L 10.308594 13.445312 Z M 11.136719 12.617188 L 11.136719 9.730469 L 14.023438 9.730469 L 14.023438 12.617188 Z M 11.136719 12.617188"/>
    <path d="M 10.722656 22.929688 L 0.824219 22.929688 L 0.824219 6.84375 L 20.621094 6.84375 L 20.621094 13.855469 C 20.621094 14.085938 20.804688 14.269531 21.03125 14.269531 C 21.261719 14.269531 21.445312 14.085938 21.445312 13.855469 L 21.445312 2.308594 C 21.445312 2.082031 21.261719 1.894531 21.03125 1.894531 L 18.96875 1.894531 L 18.96875 0.660156 C 18.96875 0.429688 18.785156 0.246094 18.558594 0.246094 L 15.671875 0.246094 C 15.445312 0.246094 15.257812 0.429688 15.257812 0.660156 L 15.257812 1.894531 L 6.1875 1.894531 L 6.1875 0.660156 C 6.1875 0.429688 6 0.246094 5.773438 0.246094 L 2.886719 0.246094 C 2.660156 0.246094 2.472656 0.429688 2.472656 0.660156 L 2.472656 1.894531 L 0.414062 1.894531 C 0.183594 1.894531 0 2.082031 0 2.308594 L 0 23.339844 C 0 23.570312 0.183594 23.753906 0.414062 23.753906 L 10.722656 23.753906 C 10.949219 23.753906 11.136719 23.570312 11.136719 23.339844 C 11.136719 23.113281 10.949219 22.929688 10.722656 22.929688 Z M 16.082031 1.070312 L 18.144531 1.070312 L 18.144531 3.546875 L 16.082031 3.546875 Z M 3.300781 1.070312 L 5.359375 1.070312 L 5.359375 3.546875 L 3.300781 3.546875 Z M 0.824219 2.722656 L 2.472656 2.722656 L 2.472656 3.957031 C 2.472656 4.1875 2.660156 4.371094 2.886719 4.371094 L 5.773438 4.371094 C 6 4.371094 6.1875 4.1875 6.1875 3.957031 L 6.1875 2.722656 L 15.257812 2.722656 L 15.257812 3.957031 C 15.257812 4.1875 15.445312 4.371094 15.671875 4.371094 L 18.558594 4.371094 C 18.785156 4.371094 18.96875 4.1875 18.96875 3.957031 L 18.96875 2.722656 L 20.621094 2.722656 L 20.621094 6.019531 L 0.824219 6.019531 Z M 0.824219 2.722656"/>
</svg>

<svg xmlns="http://www.w3.org/2000/svg" width="32" height="32" viewBox="0 0 24 24">
    <path d="M23.852 19.07c-1.45-2.215-3.383-3.46-5.47-3.543a3.162 3.162 0 0 0-.335-.023c-.2 0-.399.023-.586.062-1.895.246-3.645 1.465-4.977 3.504l-.191.293.145.227c1.5 2.289 3.519 3.55 5.687 3.55 2.164 0 4.184-1.261 5.684-3.55l.191-.293zm-3.778-.715a2.026 2.026 0 0 1-4.05 0c0-.968.683-1.777 1.59-1.976a5.22 5.22 0 0 1 .554-.035h.023a2.025 2.025 0 0 1 1.883 2.011zm-1.949 3.961c-1.813 0-3.523-1.046-4.844-2.953.64-.945 1.38-1.68 2.176-2.187-.164.36-.258.758-.258 1.18a2.85 2.85 0 0 0 5.7 0c0-.504-.133-.973-.36-1.383.906.496 1.75 1.28 2.473 2.324-1.328 1.95-3.059 3.02-4.887 3.02zm0 0"/>
    <path d="M14.848 13.445h3.71V8.906H2.888v11.961h8.25v-7.422zm0-3.715h2.886v2.887h-2.886zm-7.426 0h2.887v2.887H7.422zm-3.711 0h2.887v2.887H3.71zm0 3.715h2.887v2.887H3.71zm2.887 6.598H3.71v-2.887h2.887zm3.71 0H7.423v-2.887h2.887zm0-3.711H7.423v-2.887h2.887zm.829-3.715V9.73h2.886v2.887zm0 0"/>
    <path d="M10.723 22.93H.824V6.844h19.797v7.011a.412.412 0 1 0 .824 0V2.31a.414.414 0 0 0-.414-.414H18.97V.66a.411.411 0 0 0-.41-.414h-2.887a.414.414 0 0 0-.414.414v1.235h-9.07V.66a.414.414 0 0 0-.415-.414H2.887a.414.414 0 0 0-.414.414v1.235H.414A.414.414 0 0 0 0 2.309v21.03c0 .231.184.415.414.415h10.309a.414.414 0 0 0 .414-.414.413.413 0 0 0-.414-.41zm5.359-21.86h2.063v2.477h-2.063zm-12.781 0h2.058v2.477H3.301zM.824 2.723h1.649v1.234c0 .23.187.414.414.414h2.886a.414.414 0 0 0 .415-.414V2.723h9.07v1.234c0 .23.187.414.414.414h2.887c.226 0 .41-.184.41-.414V2.723h1.652V6.02H.824zm0 0"/>
</svg>
